X:1
T:Title
%%score { ( 1 3 ) | ( 2 4 ) }
L:1/8
Q:1/4=90
M:6/8
K:C
V:1 treble nm="Grand Piano"
V:3 treble 
V:2 bass 
V:4 bass 
V:1
 [CE][DF][_E^F] [=EG][=FA][EG] | [Ec][GB][FA] [EG]3 | AAA [EG][Ec][Ec] | [Gc][FB][Ec] [Gd]3 | %4
w: L.~E.~Jones * * * * *||||
 [Ge][Fd][Ec] [EG][CE][EG] | [Ec][FB][Gc] [FA]3 | [^FA][FB][Fc] [Fd][Fc][FA] | G6 | .[Ec]6 | %9
w: |||||
 [FA]3 z3 | .B6 | [Ec]3 z3 | .[Ge]6 | [Fd]3 z3 | BAG GAB | c6 |] %16
w: |||||||
V:2
 [C,G,][C,G,][C,G,] [C,C][C,C][C,C] | [C,G,][C,G,][C,G,] [C,C]3 | %2
 [F,CF][F,CF][F,CF] [C,C][C,G,][C,G,] | [E,C][D,G,][C,C] [G,B,]3 | %4
 [C,C][C,C][C,C] [C,C][C,G,][C,C] | [C,G,][D,G,][E,C] [F,C]3 | [D,D][D,A,][D,A,] [D,A,][D,D][D,C] | %7
 .[B,D]3 z3 | C,C,C, C,[C,C][C,C] | [F,C]F,F,[K:treble] [F,A,F]3 | .F6[K:bass] | CG,E, [C,C]3 | %12
 [C,C]C,C, C,[D,B,][E,_B,] | [F,A,]F,F,[K:treble] [F,CF]3 | %14
 [G,D][G,B,F][G,B,F] [G,B,F][G,B,F][G,DF] | z G,A, .G,3 |] %16
V:3
 x6 | x6 | x6 | x6 | x6 | x6 | x6 | z DE .F3 | CG,G, G,[Fd][Ge] | z CC c3 | z DD D[B,FA][DFB] | %11
 z CC [EG]3 | z CC C[Gd][Gc] | z A,A, A3 | x6 | [CE]EF .E3 |] %16
V:4
 x6 | x6 | x6 | x6 | x6 | x6 | x6 | G,-[G,-B,][G,-C] [G,D]3 | x6 | x3[K:treble] x3 | %10
 [G,D]G,G, G,[K:bass]G,G, | x6 | x6 | x3[K:treble] x3 | x6 | C,6 |] %16

